X:71
%
T:The Otter's Holt
C:Traditional
L:1/8
M:C
Q:1/4=80
K:D treble
%
|: "Bm" eB BA FE EB | A2 FB AB de | fB BA FE FA | "A" Bd cA Bc de |
"Bm" eB BA FE EB | A2 FB AB de | f2 af ef fe | "A" dB BA B4 :|
|: "D" d3 f a2 fa | bf af "A" eg fe | "D" d2 df ad fa | bf gf eg fe |
"D" d3 f a2 fa | bf af "A" eg fe | "Bm" fB BA FE FA | "A" Bd cA B4 :|

